weather_app/src/Images/Sunny.svg

<svg xmlns="http://www.w3.org/2000/svg" xmlns:xlink="http://www.w3.org/1999/xlink" width="514" height="514" viewBox="0 0 514 514">
  <defs>
    <style>
      .cls-1, .cls-3, .cls-5, .cls-6, .cls-7, .cls-8 {
        stroke: #707070;
      }

      .cls-1 {
        fill: url(#linear-gradient);
      }

      .cls-2 {
        fill: url(#linear-gradient-2);
      }

      .cls-3 {
        fill: url(#linear-gradient-3);
      }

      .cls-4 {
        fill: url(#linear-gradient-4);
      }

      .cls-5 {
        fill: #ffdc4b;
      }

      .cls-6 {
        opacity: 0.478;
      }

      .cls-6, .cls-7, .cls-8 {
        fill: url(#linear-gradient-5);
      }

      .cls-7 {
        opacity: 0.31;
      }

      .cls-8 {
        opacity: 0.261;
      }

      .cls-11, .cls-9 {
        stroke: none;
      }

      .cls-10 {
        fill: none;
      }

      .cls-11 {
        fill: #707070;
      }

      .cls-12 {
        filter: url(#Subtraction_1);
      }

      .cls-13 {
        filter: url(#Subtraction_2);
      }

      .cls-14 {
        filter: url(#Rectangle_18);
      }
    </style>
    <linearGradient id="linear-gradient" x1="0.872" y1="0.093" x2="0.142" y2="0.932" gradientUnits="objectBoundingBox">
      <stop offset="0" stop-color="#7d5dff"/>
      <stop offset="1" stop-color="#29deff"/>
    </linearGradient>
    <filter id="Rectangle_18" x="0" y="0" width="514" height="514" filterUnits="userSpaceOnUse">
      <feOffset dy="50" input="SourceAlpha"/>
      <feGaussianBlur stdDeviation="49.5" result="blur"/>
      <feFlood flood-opacity="0.161"/>
      <feComposite operator="in" in2="blur"/>
      <feComposite in="SourceGraphic"/>
    </filter>
    <linearGradient id="linear-gradient-2" x1="0.881" y1="0.863" x2="0.24" y2="0.176" gradientUnits="objectBoundingBox">
      <stop offset="0" stop-color="#facd0b"/>
      <stop offset="1" stop-color="#ffb7a0"/>
    </linearGradient>
    <filter id="Subtraction_2" x="188.368" y="147.37" width="128.205" height="128.203" filterUnits="userSpaceOnUse">
      <feOffset dy="10" input="SourceAlpha"/>
      <feGaussianBlur stdDeviation="10" result="blur-2"/>
      <feFlood flood-color="#ffddbc"/>
      <feComposite operator="in" in2="blur-2"/>
      <feComposite in="SourceGraphic"/>
    </filter>
    <linearGradient id="linear-gradient-3" x1="0.184" y1="0.127" x2="0.839" y2="0.848" gradientUnits="objectBoundingBox">
      <stop offset="0" stop-color="#ffdb45"/>
      <stop offset="1" stop-color="#ffa68b"/>
    </linearGradient>
    <linearGradient id="linear-gradient-4" x1="0.184" y1="0.127" x2="0.839" y2="0.848" gradientUnits="objectBoundingBox">
      <stop offset="0" stop-color="#ffe05d"/>
      <stop offset="1" stop-color="#ffbeaa"/>
    </linearGradient>
    <filter id="Subtraction_1" x="200.441" y="160.444" width="122.059" height="122.056" filterUnits="userSpaceOnUse">
      <feOffset dy="10" input="SourceAlpha"/>
      <feGaussianBlur stdDeviation="10" result="blur-3"/>
      <feFlood flood-color="#ffddbc"/>
      <feComposite operator="in" in2="blur-3"/>
      <feComposite in="SourceGraphic"/>
    </filter>
    <linearGradient id="linear-gradient-5" x1="0.5" x2="0.5" y2="1" gradientUnits="objectBoundingBox">
      <stop offset="0" stop-color="#fff" stop-opacity="0.2"/>
      <stop offset="1" stop-color="#fff"/>
    </linearGradient>
  </defs>
  <g id="sunny" transform="translate(-343.5 -85.5)">
    <g class="cls-14" transform="matrix(1, 0, 0, 1, 343.5, 85.5)">
      <g id="Rectangle_18-2" data-name="Rectangle 18" class="cls-1" transform="translate(148.5 98.5)">
        <rect class="cls-9" width="217" height="217" rx="72"/>
        <rect class="cls-10" x="0.5" y="0.5" width="216" height="216" rx="71.5"/>
      </g>
    </g>
    <g id="Group_24" data-name="Group 24" transform="translate(121 -184)">
      <g id="sun" transform="translate(19 215)">
        <g class="cls-13" transform="matrix(1, 0, 0, 1, 203.5, 54.5)">
          <g id="Subtraction_2-2" data-name="Subtraction 2" class="cls-2" transform="matrix(-0.99, -0.1, 0.1, -0.99, 296.96, 36.19)">
            <path class="cls-9" d="M 22.4999885559082 -138.4997100830078 C 17.40629959106445 -138.4997100830078 12.49578857421875 -139.5691070556641 7.904878616333008 -141.6781921386719 C 6.05654239654541 -142.5273590087891 4.276037693023682 -143.5430603027344 2.597975969314575 -144.7048034667969 C 3.85826563835144 -144.0340576171875 5.160247325897217 -143.4380035400391 6.50010871887207 -142.9189910888672 C 10.6432991027832 -141.3140563964844 15.01718902587891 -140.5003051757812 19.50029945373535 -140.5003051757812 C 24.35991859436035 -140.5003051757812 29.0744686126709 -141.4522094726562 33.51300048828125 -143.3295745849609 C 37.79988861083984 -145.1428070068359 41.6497802734375 -147.7384643554688 44.95573806762695 -151.0444488525391 C 48.26175689697266 -154.3504791259766 50.85742950439453 -158.2003784179688 52.67063903808594 -162.4871978759766 C 54.54800796508789 -166.9257354736328 55.49990844726562 -171.6402893066406 55.49990844726562 -176.4999084472656 C 55.49990844726562 -180.9816741943359 54.68628692626953 -185.3547973632812 53.08164978027344 -189.4978179931641 C 52.56323623657227 -190.8363189697266 51.96796417236328 -192.1370391845703 51.29818725585938 -193.3961334228516 C 52.45877075195312 -191.7189331054688 53.47341537475586 -189.9396667480469 54.32180023193359 -188.0926666259766 C 56.43045043945312 -183.5019683837891 57.49961853027344 -178.5923614501953 57.49961853027344 -173.5001983642578 C 57.49961853027344 -168.7748870849609 56.5743293762207 -164.1912231445312 54.74945831298828 -159.8765563964844 C 52.98671722412109 -155.7087249755859 50.46308898925781 -151.965576171875 47.24868011474609 -148.7510528564453 C 44.03424835205078 -145.5365142822266 40.29121017456055 -143.0127868652344 36.12351989746094 -141.25 C 31.80888938903809 -139.425048828125 27.22526931762695 -138.4997100830078 22.4999885559082 -138.4997100830078 Z"/>
            <path class="cls-11" d="M 22.4999885559082 -138.9997100830078 C 27.15798950195312 -138.9997100830078 31.67606925964355 -139.9117584228516 35.92874908447266 -141.7104949951172 C 40.03682708740234 -143.4480895996094 43.72644805908203 -145.9358215332031 46.89511871337891 -149.1045989990234 C 50.06377029418945 -152.2733459472656 52.55141830444336 -155.9630889892578 54.28895950317383 -160.0713195800781 C 56.08761978149414 -164.3240203857422 56.99961853027344 -168.8421478271484 56.99961853027344 -173.5001983642578 C 56.99961853027344 -177.5697479248047 56.30701446533203 -181.5206909179688 54.93730163574219 -185.2817077636719 C 55.64348602294922 -182.4253234863281 55.99990844726562 -179.4862060546875 55.99990844726562 -176.4999084472656 C 55.99990844726562 -171.5730133056641 55.03471755981445 -166.7929077148438 53.13113784790039 -162.2924194335938 C 51.29271697998047 -157.9459991455078 48.66106796264648 -154.0426788330078 45.30929946899414 -150.6908874511719 C 41.95758056640625 -147.3391571044922 38.05426788330078 -144.70751953125 33.70777893066406 -142.8690795898438 C 29.20727920532227 -140.9654998779297 24.42719841003418 -140.0003051757812 19.50029945373535 -140.0003051757812 C 16.51062774658203 -140.0003051757812 13.56846714019775 -140.3573760986328 10.70944118499756 -141.0648651123047 C 14.47286796569824 -139.6932220458984 18.42675590515137 -138.9997100830078 22.4999885559082 -138.9997100830078 M 22.4999885559082 -137.9997100830078 C 17.33371925354004 -137.9997100830078 12.35298919677734 -139.08447265625 7.696148872375488 -141.2238464355469 C 5.462718963623047 -142.2499237060547 3.32693886756897 -143.5157318115234 1.348188757896423 -144.9860992431641 C -0.6149612069129944 -146.4449005126953 -2.434211254119873 -148.1128845214844 -4.059011459350586 -149.9436950683594 C -0.8805012106895447 -147.1217498779297 2.732388734817505 -144.9146881103516 6.680718898773193 -143.3852386474609 C 10.76603889465332 -141.8027191162109 15.07915878295898 -141.0003051757812 19.50029945373535 -141.0003051757812 C 24.29262924194336 -141.0003051757812 28.94166946411133 -141.9389190673828 33.31821823120117 -143.7900695800781 C 37.54547882080078 -145.5780792236328 41.34196853637695 -148.1377563476562 44.60218811035156 -151.3979949951172 C 47.8624382019043 -154.6582641601562 50.4221305847168 -158.4547424316406 52.21014022827148 -162.6819763183594 C 54.06129837036133 -167.0585479736328 54.99990844726562 -171.7075653076172 54.99990844726562 -176.4999084472656 C 54.99990844726562 -180.9196624755859 54.19764709472656 -185.2320251464844 52.61539840698242 -189.3172302246094 C 51.0870475769043 -193.2632904052734 48.88129043579102 -196.8763427734375 46.0593376159668 -200.0560150146484 C 47.8918571472168 -198.4290161132812 49.55870819091797 -196.6093292236328 51.01501846313477 -194.6489105224609 C 52.48495864868164 -192.670166015625 53.75040054321289 -190.5345458984375 54.77615737915039 -188.3013763427734 C 56.91507720947266 -183.644775390625 57.99961853027344 -178.6649475097656 57.99961853027344 -173.5001983642578 C 57.99961853027344 -168.7076110839844 57.06105041503906 -164.0584259033203 55.20996856689453 -159.6817779541016 C 53.4220085144043 -155.454345703125 50.86238861083984 -151.6577606201172 47.60223770141602 -148.3975067138672 C 44.34206771850586 -145.1372222900391 40.54560852050781 -142.5775146484375 36.31829833984375 -140.7895050048828 C 31.94171905517578 -138.9383392333984 27.29255867004395 -137.9997100830078 22.4999885559082 -137.9997100830078 Z"/>
          </g>
        </g>
        <g id="Ellipse_39" data-name="Ellipse 39" class="cls-3" transform="translate(425 226)">
          <circle class="cls-9" cx="35.5" cy="35.5" r="35.5"/>
          <circle class="cls-10" cx="35.5" cy="35.5" r="35"/>
        </g>
        <g class="cls-12" transform="matrix(1, 0, 0, 1, 203.5, 54.5)">
          <g id="Subtraction_1-2" data-name="Subtraction 1" class="cls-4" transform="translate(234.5 380.5)">
            <path class="cls-9" d="M 22.4999885559082 -138.4997100830078 C 17.40629959106445 -138.4997100830078 12.49578857421875 -139.5691070556641 7.904878616333008 -141.6781921386719 C 6.05654239654541 -142.5273590087891 4.276037693023682 -143.5430603027344 2.597975969314575 -144.7048034667969 C 3.85826563835144 -144.0340576171875 5.160247325897217 -143.4380035400391 6.50010871887207 -142.9189910888672 C 10.6432991027832 -141.3140563964844 15.01718902587891 -140.5003051757812 19.50029945373535 -140.5003051757812 C 24.35991859436035 -140.5003051757812 29.0744686126709 -141.4522094726562 33.51300048828125 -143.3295745849609 C 37.79988861083984 -145.1428070068359 41.6497802734375 -147.7384643554688 44.95573806762695 -151.0444488525391 C 48.26175689697266 -154.3504791259766 50.85742950439453 -158.2003784179688 52.67063903808594 -162.4871978759766 C 54.54800796508789 -166.9257354736328 55.49990844726562 -171.6402893066406 55.49990844726562 -176.4999084472656 C 55.49990844726562 -180.9816741943359 54.68628692626953 -185.3547973632812 53.08164978027344 -189.4978179931641 C 52.56323623657227 -190.8363189697266 51.96796417236328 -192.1370391845703 51.29818725585938 -193.3961334228516 C 52.45877075195312 -191.7189331054688 53.47341537475586 -189.9396667480469 54.32180023193359 -188.0926666259766 C 56.43045043945312 -183.5019683837891 57.49961853027344 -178.5923614501953 57.49961853027344 -173.5001983642578 C 57.49961853027344 -168.7748870849609 56.5743293762207 -164.1912231445312 54.74945831298828 -159.8765563964844 C 52.98671722412109 -155.7087249755859 50.46308898925781 -151.965576171875 47.24868011474609 -148.7510528564453 C 44.03424835205078 -145.5365142822266 40.29121017456055 -143.0127868652344 36.12351989746094 -141.25 C 31.80888938903809 -139.425048828125 27.22526931762695 -138.4997100830078 22.4999885559082 -138.4997100830078 Z"/>
            <path class="cls-11" d="M 22.4999885559082 -138.9997100830078 C 27.15798950195312 -138.9997100830078 31.67606925964355 -139.9117584228516 35.92874908447266 -141.7104949951172 C 40.03682708740234 -143.4480895996094 43.72644805908203 -145.9358215332031 46.89511871337891 -149.1045989990234 C 50.06377029418945 -152.2733459472656 52.55141830444336 -155.9630889892578 54.28895950317383 -160.0713195800781 C 56.08761978149414 -164.3240203857422 56.99961853027344 -168.8421478271484 56.99961853027344 -173.5001983642578 C 56.99961853027344 -177.5697479248047 56.30701446533203 -181.5206909179688 54.93730163574219 -185.2817077636719 C 55.64348602294922 -182.4253234863281 55.99990844726562 -179.4862060546875 55.99990844726562 -176.4999084472656 C 55.99990844726562 -171.5730133056641 55.03471755981445 -166.7929077148438 53.13113784790039 -162.2924194335938 C 51.29271697998047 -157.9459991455078 48.66106796264648 -154.0426788330078 45.30929946899414 -150.6908874511719 C 41.95758056640625 -147.3391571044922 38.05426788330078 -144.70751953125 33.70777893066406 -142.8690795898438 C 29.20727920532227 -140.9654998779297 24.42719841003418 -140.0003051757812 19.50029945373535 -140.0003051757812 C 16.51062774658203 -140.0003051757812 13.56846714019775 -140.3573760986328 10.70944118499756 -141.0648651123047 C 14.47286796569824 -139.6932220458984 18.42675590515137 -138.9997100830078 22.4999885559082 -138.9997100830078 M 22.4999885559082 -137.9997100830078 C 17.33371925354004 -137.9997100830078 12.35298919677734 -139.08447265625 7.696148872375488 -141.2238464355469 C 5.462718963623047 -142.2499237060547 3.32693886756897 -143.5157318115234 1.348188757896423 -144.9860992431641 C -0.6149612069129944 -146.4449005126953 -2.434211254119873 -148.1128845214844 -4.059011459350586 -149.9436950683594 C -0.8805012106895447 -147.1217498779297 2.732388734817505 -144.9146881103516 6.680718898773193 -143.3852386474609 C 10.76603889465332 -141.8027191162109 15.07915878295898 -141.0003051757812 19.50029945373535 -141.0003051757812 C 24.29262924194336 -141.0003051757812 28.94166946411133 -141.9389190673828 33.31821823120117 -143.7900695800781 C 37.54547882080078 -145.5780792236328 41.34196853637695 -148.1377563476562 44.60218811035156 -151.3979949951172 C 47.8624382019043 -154.6582641601562 50.4221305847168 -158.4547424316406 52.21014022827148 -162.6819763183594 C 54.06129837036133 -167.0585479736328 54.99990844726562 -171.7075653076172 54.99990844726562 -176.4999084472656 C 54.99990844726562 -180.9196624755859 54.19764709472656 -185.2320251464844 52.61539840698242 -189.3172302246094 C 51.0870475769043 -193.2632904052734 48.88129043579102 -196.8763427734375 46.0593376159668 -200.0560150146484 C 47.8918571472168 -198.4290161132812 49.55870819091797 -196.6093292236328 51.01501846313477 -194.6489105224609 C 52.48495864868164 -192.670166015625 53.75040054321289 -190.5345458984375 54.77615737915039 -188.3013763427734 C 56.91507720947266 -183.644775390625 57.99961853027344 -178.6649475097656 57.99961853027344 -173.5001983642578 C 57.99961853027344 -168.7076110839844 57.06105041503906 -164.0584259033203 55.20996856689453 -159.6817779541016 C 53.4220085144043 -155.454345703125 50.86238861083984 -151.6577606201172 47.60223770141602 -148.3975067138672 C 44.34206771850586 -145.1372222900391 40.54560852050781 -142.5775146484375 36.31829833984375 -140.7895050048828 C 31.94171905517578 -138.9383392333984 27.29255867004395 -137.9997100830078 22.4999885559082 -137.9997100830078 Z"/>
          </g>
        </g>
        <g id="Rectangle_3" data-name="Rectangle 3" class="cls-5" transform="translate(389 257)">
          <rect class="cls-9" width="16" height="10" rx="5"/>
          <rect class="cls-10" x="0.5" y="0.5" width="15" height="9" rx="4.5"/>
        </g>
        <g id="Rectangle_4" data-name="Rectangle 4" class="cls-5" transform="translate(466 190) rotate(90)">
          <rect class="cls-9" width="16" height="10" rx="5"/>
          <rect class="cls-10" x="0.5" y="0.5" width="15" height="9" rx="4.5"/>
        </g>
        <g id="Rectangle_5" data-name="Rectangle 5" class="cls-5" transform="translate(516 257)">
          <rect class="cls-9" width="16" height="10" rx="5"/>
          <rect class="cls-10" x="0.5" y="0.5" width="15" height="9" rx="4.5"/>
        </g>
        <g id="Rectangle_6" data-name="Rectangle 6" class="cls-5" transform="translate(412.636 208.565) rotate(45)">
          <rect class="cls-9" width="16" height="10" rx="5"/>
          <rect class="cls-10" x="0.5" y="0.5" width="15" height="9" rx="4.5"/>
        </g>
        <g id="Rectangle_7" data-name="Rectangle 7" class="cls-5" transform="translate(466 317) rotate(90)">
          <rect class="cls-9" width="16" height="10" rx="5"/>
          <rect class="cls-10" x="0.5" y="0.5" width="15" height="9" rx="4.5"/>
        </g>
        <g id="Rectangle_8" data-name="Rectangle 8" class="cls-5" transform="translate(515.435 215.636) rotate(135)">
          <rect class="cls-9" width="16" height="10" rx="5"/>
          <rect class="cls-10" x="0.5" y="0.5" width="15" height="9" rx="4.5"/>
        </g>
        <g id="Rectangle_9" data-name="Rectangle 9" class="cls-5" transform="translate(503 297.929) rotate(45)">
          <rect class="cls-9" width="15" height="10" rx="5"/>
          <rect class="cls-10" x="0.5" y="0.5" width="14" height="9" rx="4.5"/>
        </g>
        <g id="Rectangle_10" data-name="Rectangle 10" class="cls-5" transform="translate(425.778 304.293) rotate(135)">
          <rect class="cls-9" width="16" height="10" rx="5"/>
          <rect class="cls-10" x="0.5" y="0.5" width="15" height="9" rx="4.5"/>
        </g>
      </g>
      <g id="Ellipse_44" data-name="Ellipse 44" class="cls-6" transform="translate(457 464)">
        <circle class="cls-9" cx="2.5" cy="2.5" r="2.5"/>
        <circle class="cls-10" cx="2.5" cy="2.5" r="2"/>
      </g>
      <g id="Ellipse_45" data-name="Ellipse 45" class="cls-7" transform="translate(480 454)">
        <circle class="cls-9" cx="5" cy="5" r="5"/>
        <circle class="cls-10" cx="5" cy="5" r="4.5"/>
      </g>
      <g id="Ellipse_46" data-name="Ellipse 46" class="cls-8" transform="translate(466 486)">
        <circle class="cls-9" cx="4" cy="4" r="4"/>
        <circle class="cls-10" cx="4" cy="4" r="3.5"/>
      </g>
    </g>
  </g>
</svg>

<svg xmlns="http://www.w3.org/2000/svg" xmlns:xlink="http://www.w3.org/1999/xlink" width="514" height="514" viewBox="0 0 514 514">
  <defs>
    <linearGradient id="linear-gradient" x1="0.872" y1="0.093" x2="0.142" y2="0.932" gradientUnits="objectBoundingBox">
      <stop offset="0" stop-color="#7d5dff"/>
      <stop offset="1" stop-color="#29deff"/>
    </linearGradient>
    <filter id="Rectangle_18" x="0" y="0" width="514" height="514" filterUnits="userSpaceOnUse">
      <feOffset dy="50" input="SourceAlpha"/>
      <feGaussianBlur stdDeviation="49.5" result="blur"/>
      <feFlood flood-opacity="0.161"/>
      <feComposite operator="in" in2="blur"/>
      <feComposite in="SourceGraphic"/>
    </filter>
    <linearGradient id="linear-gradient-2" x1="0.881" y1="0.863" x2="0.24" y2="0.176" gradientUnits="objectBoundingBox">
      <stop offset="0" stop-color="#facd0b"/>
      <stop offset="1" stop-color="#ffb7a0"/>
    </linearGradient>
    <filter id="Subtraction_2" x="188.368" y="147.37" width="128.205" height="128.203" filterUnits="userSpaceOnUse">
      <feOffset dy="10" input="SourceAlpha"/>
      <feGaussianBlur stdDeviation="10" result="blur-2"/>
      <feFlood flood-color="#ffddbc"/>
      <feComposite operator="in" in2="blur-2"/>
      <feComposite in="SourceGraphic"/>
    </filter>
    <linearGradient id="linear-gradient-3" x1="0.184" y1="0.127" x2="0.839" y2="0.848" gradientUnits="objectBoundingBox">
      <stop offset="0" stop-color="#ffdb45"/>
      <stop offset="1" stop-color="#ffa68b"/>
    </linearGradient>
    <linearGradient id="linear-gradient-4" x1="0.184" y1="0.127" x2="0.839" y2="0.848" gradientUnits="objectBoundingBox">
      <stop offset="0" stop-color="#ffe05d"/>
      <stop offset="1" stop-color="#ffbeaa"/>
    </linearGradient>
    <filter id="Subtraction_1" x="200.441" y="160.444" width="122.059" height="122.056" filterUnits="userSpaceOnUse">
      <feOffset dy="10" input="SourceAlpha"/>
      <feGaussianBlur stdDeviation="10" result="blur-3"/>
      <feFlood flood-color="#ffddbc"/>
      <feComposite operator="in" in2="blur-3"/>
      <feComposite in="SourceGraphic"/>
    </filter>
    <linearGradient id="linear-gradient-5" x1="0.5" x2="0.5" y2="1" gradientUnits="objectBoundingBox">
      <stop offset="0" stop-color="#fff" stop-opacity="0.2"/>
      <stop offset="1" stop-color="#fff"/>
    </linearGradient>
  </defs>
  <g id="sunny" transform="translate(-343.5 -85.5)">
    <g transform="matrix(1, 0, 0, 1, 343.5, 85.5)" filter="url(#Rectangle_18)">
      <rect id="Rectangle_18-2" data-name="Rectangle 18" width="217" height="217" rx="72" transform="translate(148.5 98.5)" fill="url(#linear-gradient)"/>
    </g>
    <g id="Group_24" data-name="Group 24" transform="translate(121 -184)">
      <g id="sun" transform="translate(19 215)">
        <g transform="matrix(1, 0, 0, 1, 203.5, 54.5)" filter="url(#Subtraction_2)">
          <path id="Subtraction_2-2" data-name="Subtraction 2" d="M22.5-138a35.212,35.212,0,0,1-14.8-3.224,35.542,35.542,0,0,1-6.348-3.762,35.767,35.767,0,0,1-5.407-4.958,35.372,35.372,0,0,0,10.74,6.558A35.348,35.348,0,0,0,19.5-141a35.277,35.277,0,0,0,13.818-2.79A35.382,35.382,0,0,0,44.6-151.4a35.382,35.382,0,0,0,7.608-11.284A35.277,35.277,0,0,0,55-176.5a35.346,35.346,0,0,0-2.385-12.817,35.38,35.38,0,0,0-6.556-10.739,35.771,35.771,0,0,1,4.956,5.407,35.549,35.549,0,0,1,3.761,6.348A35.21,35.21,0,0,1,58-173.5a35.28,35.28,0,0,1-2.79,13.818A35.381,35.381,0,0,1,47.6-148.4a35.38,35.38,0,0,1-11.284,7.608A35.278,35.278,0,0,1,22.5-138Z" transform="matrix(-0.99, -0.1, 0.1, -0.99, 296.96, 36.19)" fill="url(#linear-gradient-2)"/>
        </g>
        <circle id="Ellipse_39" data-name="Ellipse 39" cx="35.5" cy="35.5" r="35.5" transform="translate(425 226)" fill="url(#linear-gradient-3)"/>
        <g transform="matrix(1, 0, 0, 1, 203.5, 54.5)" filter="url(#Subtraction_1)">
          <path id="Subtraction_1-2" data-name="Subtraction 1" d="M22.5-138a35.212,35.212,0,0,1-14.8-3.224,35.542,35.542,0,0,1-6.348-3.762,35.767,35.767,0,0,1-5.407-4.958,35.372,35.372,0,0,0,10.74,6.558A35.348,35.348,0,0,0,19.5-141a35.277,35.277,0,0,0,13.818-2.79A35.382,35.382,0,0,0,44.6-151.4a35.382,35.382,0,0,0,7.608-11.284A35.277,35.277,0,0,0,55-176.5a35.346,35.346,0,0,0-2.385-12.817,35.38,35.38,0,0,0-6.556-10.739,35.771,35.771,0,0,1,4.956,5.407,35.549,35.549,0,0,1,3.761,6.348A35.21,35.21,0,0,1,58-173.5a35.28,35.28,0,0,1-2.79,13.818A35.381,35.381,0,0,1,47.6-148.4a35.38,35.38,0,0,1-11.284,7.608A35.278,35.278,0,0,1,22.5-138Z" transform="translate(234.5 380.5)" fill="url(#linear-gradient-4)"/>
        </g>
        <rect id="Rectangle_3" data-name="Rectangle 3" width="16" height="10" rx="5" transform="translate(389 257)" fill="#ffdc4b"/>
        <rect id="Rectangle_4" data-name="Rectangle 4" width="16" height="10" rx="5" transform="translate(466 190) rotate(90)" fill="#ffdc4b"/>
        <rect id="Rectangle_5" data-name="Rectangle 5" width="16" height="10" rx="5" transform="translate(516 257)" fill="#ffdc4b"/>
        <rect id="Rectangle_6" data-name="Rectangle 6" width="16" height="10" rx="5" transform="translate(412.636 208.565) rotate(45)" fill="#ffdc4b"/>
        <rect id="Rectangle_7" data-name="Rectangle 7" width="16" height="10" rx="5" transform="translate(466 317) rotate(90)" fill="#ffdc4b"/>
        <rect id="Rectangle_8" data-name="Rectangle 8" width="16" height="10" rx="5" transform="translate(515.435 215.636) rotate(135)" fill="#ffdc4b"/>
        <rect id="Rectangle_9" data-name="Rectangle 9" width="15" height="10" rx="5" transform="translate(503 297.929) rotate(45)" fill="#ffdc4b"/>
        <rect id="Rectangle_10" data-name="Rectangle 10" width="16" height="10" rx="5" transform="translate(425.778 304.293) rotate(135)" fill="#ffdc4b"/>
      </g>
      <circle id="Ellipse_44" data-name="Ellipse 44" cx="2.5" cy="2.5" r="2.5" transform="translate(457 464)" opacity="0.478" fill="url(#linear-gradient-5)"/>
      <circle id="Ellipse_45" data-name="Ellipse 45" cx="5" cy="5" r="5" transform="translate(480 454)" opacity="0.31" fill="url(#linear-gradient-5)"/>
      <circle id="Ellipse_46" data-name="Ellipse 46" cx="4" cy="4" r="4" transform="translate(466 486)" opacity="0.261" fill="url(#linear-gradient-5)"/>
    </g>
  </g>
</svg>
